X:55
T:Francie Welsh's Barndance
B:NFID.092a
055fran_w
S:JD
L:1/8
M:6/8
R:jig
Q:260
K:D
F2G|: [A3F3] d3|DFA d2f|e^d2 eg2|[B3G3] c2B|
A2B c2d|eg2 B2c|dfe dcB|A3 F2G|
%B
[A3F3] d3|DFA d2f|e^d2 eg2|[B3G3] c2B|
A2B c2d|eg2 B2c|d3 d3|1 d3z D/F/G/^G/:|2 d3 ^d2f||
%C
ecA EAc|e3 a2g|fdA FAd|f3 a3|
^gbg [f3d3]|efe d3|cac B2c|A3 F2G|
%D
[A3F3] d3|DFA d2f|e^d2 eg2|[B3G3] c2B|
A2B c2d|eg2 B2c|d3 d3|Hd6|]

%%%

